X: 18638
T: I Wonder What's Keeping My True Love Tonight
R: waltz
M: 3/4
K: Fmajor
F2|"F"A2 C2 AA|G2 F3 C|"Bb"D2 F3 G|"F"F4 (Ac)|
"Bb"d2 d2 de|"F"d2 c2 (dc)|(AG) "Bb"F3 G|"Am"A5|
"Dm"d d3 (ed)|"F"d2 c2 (dc)|A2 "Bb"F3 G|"Am"A4 F2|
"C"G G3 A2|"F"c2 C3 C|"Bb"D2 F3 G|"F"F4||

